; generated by Slic3r Prusa Edition 1.40.0+win64 on 2019-02-04 at 09:28:54

; 

; external perimeters extrusion width = 0.60mm
; perimeters extrusion width = 0.43mm
; infill extrusion width = 0.45mm
; solid infill extrusion width = 0.70mm
; top infill extrusion width = 0.43mm
; support material extrusion width = 0.35mm
; first layer extrusion width = 0.42mm

M107
M115 U3.1.0 ; tell printer latest fw version
M201 X9000 Y9000 Z500 E10000 ; sets maximum accelerations, mm/sec^2
M203 X500 Y500 Z12 E120 ; sets maximum feedrates, mm/sec
M204 S1500 T1500 ; sets acceleration (S) and retract acceleration (T)
M205 X10 Y10 Z0.2 E2.5 ; sets the jerk limits, mm/sec
M205 S0 T0 ; sets the minimum extruding and travel feed rate, mm/sec
M83  ; extruder relative mode
M104 S215 ; set extruder temp
M140 S60 ; set bed temp
M190 S60 ; wait for bed temp
M109 S215 ; wait for extruder temp
G28 W ; home all without mesh bed level
G80 ; mesh bed leveling
G1 Y-3.0 F1000.0 ; go outside print area
G92 E0.0
G1 X60.0 E9.0  F1000.0 ; intro line
G1 X100.0 E12.5  F1000.0 ; intro line
G92 E0.0
M900 K30; Filament gcode
G21 ; set units to millimeters
G90 ; use absolute coordinates
M83 ; use relative distances for extrusion
;BEFORE_LAYER_CHANGE
G92 E0.0
;0.2


G1 E-0.80000 F2100.00000
G1 Z0.600 F10800.000
;AFTER_LAYER_CHANGE
;0.2
G1 X64.584 Y70.410
G1 Z0.200
G1 E0.80000 F2100.00000
M204 S1000
G1 F1800
G1 X65.298 Y70.288 E0.02270
G1 X171.991 Y70.288 E3.34529
G1 X172.763 Y70.430 E0.02462
G1 X173.433 Y70.833 E0.02451
G1 X173.920 Y71.449 E0.02462
G1 X174.158 Y72.197 E0.02462
G1 X176.849 Y108.165 E1.13090
G1 X176.843 Y118.975 E0.33893
G1 X174.166 Y154.680 E1.12265
G1 X173.911 Y155.520 E0.02754
G1 X173.342 Y156.195 E0.02766
G1 X172.711 Y156.542 E0.02259
G1 X171.998 Y156.665 E0.02270
G1 X65.300 Y156.665 E3.34543
G1 X64.815 Y156.608 E0.01532
G1 X64.350 Y156.444 E0.01544
G1 X63.935 Y156.181 E0.01544
G1 X63.588 Y155.831 E0.01544
G1 X63.242 Y155.199 E0.02259
G1 X63.119 Y154.489 E0.02259
G1 X63.119 Y72.465 E2.57181
G1 X63.176 Y71.980 E0.01532
G1 X63.341 Y71.516 E0.01544
G1 X63.603 Y71.103 E0.01532
G1 X63.953 Y70.757 E0.01544
G1 X64.532 Y70.439 E0.02071
G1 F8640
G1 X65.298 Y70.288 E-0.18032
G1 X67.808 Y70.288 E-0.57968
G1 E-0.04000 F2100.00000
G1 Z0.800 F10800.000
G1 X69.078 Y108.031
G1 Z0.200
G1 E0.80000 F2100.00000
G1 F1800
G1 X69.078 Y118.648 E0.33289
G1 X69.832 Y118.648 E0.02365
G1 X69.832 Y108.200 E0.32757
G1 X70.587 Y108.200 E0.02365
G1 X70.587 Y118.648 E0.32757
G1 X71.341 Y118.648 E0.02365
G1 X71.341 Y108.200 E0.32757
G1 X72.095 Y108.200 E0.02365
G1 X72.095 Y118.818 E0.33289
G1 F8640
G1 X72.095 Y115.526 E-0.76000
G1 E-0.04000 F2100.00000
G1 Z0.800 F10800.000
G1 X164.856 Y118.818
G1 Z0.200
G1 E0.80000 F2100.00000
G1 F1800
G1 X164.856 Y108.200 E0.33289
G1 X165.611 Y108.200 E0.02365
G1 X165.611 Y118.648 E0.32757
G1 X166.365 Y118.648 E0.02365
G1 X166.365 Y108.200 E0.32757
G1 X167.119 Y108.200 E0.02365
G1 X167.119 Y118.648 E0.32757
G1 X167.873 Y118.648 E0.02365
G1 X167.873 Y108.200 E0.32757
G1 X168.627 Y108.200 E0.02365
G1 X168.627 Y118.818 E0.33289
G1 F8640
G1 X168.627 Y115.526 E-0.76000
G1 E-0.04000 F2100.00000
G1 Z0.800 F10800.000
G1 X174.660 Y118.818
G1 Z0.200
G1 E0.80000 F2100.00000
G1 F1800
G1 X174.660 Y108.200 E0.33289
G1 X173.906 Y108.200 E0.02365
G1 X173.906 Y118.648 E0.32757
G1 X173.152 Y118.648 E0.02365
G1 X173.152 Y108.031 E0.33289
G1 F8640
G1 X173.152 Y111.322 E-0.76000
G1 E-0.04000 F2100.00000
G1 Z0.800 F10800.000
G1 X155.902 Y147.298
G1 Z0.200
G1 E0.80000 F2100.00000
G1 F1800
G1 X156.824 Y148.220 E0.04088
G1 X157.160 Y149.476 E0.04078
G1 X156.824 Y150.733 E0.04078
G1 X155.904 Y151.652 E0.04078
G1 X154.647 Y151.989 E0.04078
G1 X153.391 Y151.652 E0.04078
G1 X152.471 Y150.733 E0.04078
G1 X152.135 Y149.476 E0.04078
G1 X152.471 Y148.220 E0.04078
G1 X153.391 Y147.300 E0.04078
G1 X154.626 Y146.969 E0.04008
G1 X155.844 Y147.283 E0.03943
G1 X155.708 Y147.637 F10800.000
G1 F1800
G1 X156.485 Y148.415 E0.03448
G1 X156.770 Y149.476 E0.03445
G1 X156.485 Y150.537 E0.03445
G1 X155.709 Y151.314 E0.03445
G1 X154.647 Y151.599 E0.03445
G1 X153.586 Y151.314 E0.03445
G1 X152.809 Y150.537 E0.03445
G1 X152.525 Y149.476 E0.03445
G1 X152.809 Y148.415 E0.03445
G1 X153.586 Y147.638 E0.03445
G1 X154.628 Y147.359 E0.03380
G1 X155.650 Y147.622 E0.03309
G1 X156.054 Y147.437 F10800.000
G1 F8640
G1 X156.485 Y148.415 E-0.26596
G1 X156.770 Y149.476 E-0.25368
G1 X156.500 Y150.482 E-0.24037
G1 E-0.04000 F2100.00000
G1 Z0.800 F10800.000
G1 X85.160 Y149.476
G1 Z0.200
G1 E0.80000 F2100.00000
G1 F1800
G1 X84.824 Y150.733 E0.04078
G1 X83.904 Y151.652 E0.04078
G1 X82.647 Y151.989 E0.04078
G1 X81.391 Y151.652 E0.04078
G1 X80.471 Y150.733 E0.04078
G1 X80.135 Y149.476 E0.04078
G1 X80.471 Y148.220 E0.04078
G1 X81.391 Y147.300 E0.04078
G1 X82.626 Y146.969 E0.04008
G1 X83.902 Y147.298 E0.04131
G1 X84.824 Y148.220 E0.04088
G1 X85.145 Y149.418 E0.03890
G1 X84.770 Y149.476 F10800.000
G1 F1800
G1 X84.485 Y150.537 E0.03445
G1 X83.709 Y151.314 E0.03445
G1 X82.647 Y151.599 E0.03445
G1 X81.586 Y151.314 E0.03445
G1 X80.809 Y150.537 E0.03445
G1 X80.525 Y149.476 E0.03445
G1 X80.809 Y148.415 E0.03445
G1 X81.586 Y147.638 E0.03445
G1 X82.628 Y147.359 E0.03380
G1 X83.708 Y147.637 E0.03498
G1 X84.485 Y148.415 E0.03448
G1 X84.754 Y149.418 E0.03257
G1 X85.116 Y149.676 F10800.000
G1 F8640
G1 X84.485 Y150.537 E-0.26577
G1 X83.709 Y151.314 E-0.25368
G1 X82.702 Y151.584 E-0.24055
G1 E-0.04000 F2100.00000
G1 Z0.800 F10800.000
G1 X67.260 Y80.504
G1 Z0.200
G1 E0.80000 F2100.00000
G1 F1800
G1 X170.034 Y80.504 E3.22241
G1 X170.034 Y146.448 E2.06763
G1 X67.260 Y146.448 E3.22241
G1 X67.260 Y80.564 E2.06575
G1 X67.637 Y80.881 F10800.000
G1 F1800
G1 X169.657 Y80.881 E3.19877
G1 X169.657 Y146.071 E2.04399
G1 X67.637 Y146.071 E3.19877
G1 X67.637 Y80.941 E2.04211
G1 X67.506 Y80.503 F10800.000
G1 F8640
G1 X70.929 Y80.939 E-0.76000
G1 E-0.04000 F2100.00000
G1 Z0.800 F10800.000
G1 X80.135 Y77.476
G1 Z0.200
G1 E0.80000 F2100.00000
G1 F1800
G1 X80.471 Y76.220 E0.04078
G1 X81.391 Y75.300 E0.04078
G1 X82.626 Y74.969 E0.04008
G1 X83.902 Y75.298 E0.04131
G1 X84.824 Y76.220 E0.04088
G1 X85.160 Y77.476 E0.04078
G1 X84.824 Y78.733 E0.04078
G1 X83.904 Y79.652 E0.04078
G1 X82.647 Y79.989 E0.04078
G1 X81.391 Y79.652 E0.04078
G1 X80.471 Y78.733 E0.04078
G1 X80.150 Y77.534 E0.03890
G1 X80.525 Y77.476 F10800.000
G1 F1800
G1 X80.809 Y76.415 E0.03445
G1 X81.586 Y75.638 E0.03445
G1 X82.628 Y75.359 E0.03380
G1 X83.708 Y75.637 E0.03498
G1 X84.485 Y76.415 E0.03448
G1 X84.770 Y77.476 E0.03445
G1 X84.485 Y78.537 E0.03445
G1 X83.709 Y79.314 E0.03445
G1 X82.647 Y79.599 E0.03445
G1 X81.586 Y79.314 E0.03445
G1 X80.809 Y78.537 E0.03445
G1 X80.541 Y77.534 E0.03257
G1 X80.179 Y77.276 F10800.000
G1 F8640
G1 X80.809 Y76.415 E-0.26577
G1 X81.586 Y75.638 E-0.25368
G1 X82.593 Y75.368 E-0.24055
G1 E-0.04000 F2100.00000
G1 Z0.800 F10800.000
G1 X152.135 Y77.476
G1 Z0.200
G1 E0.80000 F2100.00000
G1 F1800
G1 X152.471 Y76.220 E0.04078
G1 X153.391 Y75.300 E0.04078
G1 X154.626 Y74.969 E0.04008
G1 X155.902 Y75.298 E0.04131
G1 X156.824 Y76.220 E0.04088
G1 X157.160 Y77.476 E0.04078
G1 X156.824 Y78.733 E0.04078
G1 X155.920 Y79.636 E0.04008
G1 X154.650 Y79.990 E0.04131
G1 X153.391 Y79.652 E0.04088
G1 X152.471 Y78.733 E0.04078
G1 X152.150 Y77.534 E0.03890
G1 X152.525 Y77.476 F10800.000
G1 F1800
G1 X152.809 Y76.415 E0.03445
G1 X153.586 Y75.638 E0.03445
G1 X154.628 Y75.359 E0.03380
G1 X155.708 Y75.637 E0.03498
G1 X156.485 Y76.415 E0.03448
G1 X156.770 Y77.476 E0.03445
G1 X156.485 Y78.537 E0.03445
G1 X155.723 Y79.300 E0.03380
G1 X154.648 Y79.599 E0.03498
G1 X153.586 Y79.314 E0.03448
G1 X152.809 Y78.537 E0.03445
G1 X152.541 Y77.534 E0.03257
G1 X152.179 Y77.276 F10800.000
G1 F8640
G1 X152.809 Y76.415 E-0.26577
G1 X153.586 Y75.638 E-0.25368
G1 X154.593 Y75.368 E-0.24055
G1 E-0.04000 F2100.00000
G1 Z0.800 F10800.000
G1 X171.400 Y73.063
G1 Z0.200
G1 E0.80000 F2100.00000
G1 F1800
G1 X171.400 Y153.889 E2.53424
G1 X65.894 Y153.889 E3.30806
G1 X65.894 Y73.063 E2.53424
G1 X171.340 Y73.063 E3.30618
G1 X171.777 Y72.686 F10800.000
G1 F1800
G1 X171.777 Y154.266 E2.55788
G1 X65.517 Y154.266 E3.33171
G1 X65.517 Y72.686 E2.55788
G1 X171.717 Y72.686 E3.32983
G1 X171.657 Y73.068 F10800.000
G1 F8640
G1 X171.720 Y75.978 E-0.76000
G1 E-0.04000 F2100.00000
G1 Z0.800 F10800.000
G1 X171.287 Y73.940
G1 Z0.200
G1 E0.80000 F2100.00000
G1 F1800
G1 X170.693 Y73.346 E0.02640
G1 X170.159 Y73.346 E0.01679
G1 X171.118 Y74.305 E0.04260
G1 X171.118 Y74.839 E0.01679
G1 X169.624 Y73.346 E0.06635
G1 X169.090 Y73.346 E0.01679
G1 X171.118 Y75.374 E0.09009
G1 X171.118 Y75.908 E0.01679
G1 X168.556 Y73.346 E0.11383
G1 X168.021 Y73.346 E0.01679
G1 X171.118 Y76.442 E0.13757
G1 X171.118 Y76.977 E0.01679
G1 X167.487 Y73.346 E0.16131
G1 X166.953 Y73.346 E0.01679
G1 X171.118 Y77.511 E0.18506
G1 X171.118 Y78.045 E0.01679
G1 X166.418 Y73.346 E0.20880
G1 X165.884 Y73.346 E0.01679
G1 X171.118 Y78.580 E0.23254
G1 X171.118 Y79.114 E0.01679
G1 X165.350 Y73.346 E0.25628
G1 X164.815 Y73.346 E0.01679
G1 X171.118 Y79.648 E0.28003
G1 X171.118 Y80.183 E0.01679
G1 X164.281 Y73.346 E0.30377
G1 X163.746 Y73.346 E0.01679
G1 X171.118 Y80.717 E0.32751
G1 X171.118 Y81.251 E0.01679
G1 X163.212 Y73.346 E0.35125
G1 X162.678 Y73.346 E0.01679
G1 X169.553 Y80.221 E0.30548
G1 X169.019 Y80.221 E0.01679
G1 X162.143 Y73.346 E0.30548
G1 X161.609 Y73.346 E0.01679
G1 X168.484 Y80.221 E0.30548
G1 X167.950 Y80.221 E0.01679
G1 X161.075 Y73.346 E0.30548
G1 X160.540 Y73.346 E0.01679
G1 X167.416 Y80.221 E0.30548
G1 X166.881 Y80.221 E0.01679
G1 X160.006 Y73.346 E0.30548
G1 X159.472 Y73.346 E0.01679
G1 X166.347 Y80.221 E0.30548
G1 X165.813 Y80.221 E0.01679
G1 X158.937 Y73.346 E0.30548
G1 X158.403 Y73.346 E0.01679
G1 X165.278 Y80.221 E0.30548
G1 X164.744 Y80.221 E0.01679
G1 X157.869 Y73.346 E0.30548
G1 X157.334 Y73.346 E0.01679
G1 X164.209 Y80.221 E0.30548
G1 X163.675 Y80.221 E0.01679
G1 X156.800 Y73.346 E0.30548
G1 X156.266 Y73.346 E0.01679
G1 X163.141 Y80.221 E0.30548
G1 X162.606 Y80.221 E0.01679
G1 X155.731 Y73.346 E0.30548
G1 X155.197 Y73.346 E0.01679
G1 X162.072 Y80.221 E0.30548
G1 X161.538 Y80.221 E0.01679
G1 X154.662 Y73.346 E0.30548
G1 X154.128 Y73.346 E0.01679
G1 X161.003 Y80.221 E0.30548
G1 X160.469 Y80.221 E0.01679
G1 X157.354 Y77.106 E0.13841
G1 X157.453 Y77.476 E0.01204
G1 X157.397 Y77.684 E0.00676
G1 X159.935 Y80.221 E0.11274
G1 X159.400 Y80.221 E0.01679
G1 X157.284 Y78.105 E0.09401
G1 X157.171 Y78.527 E0.01371
G1 X158.866 Y80.221 E0.07529
G1 X158.332 Y80.221 E0.01679
G1 X157.033 Y78.923 E0.05769
G1 X156.766 Y79.190 E0.01187
G1 X157.797 Y80.221 E0.04582
G1 X157.263 Y80.221 E0.01679
G1 X156.499 Y79.457 E0.03395
G1 X156.232 Y79.724 E0.01187
G1 X156.729 Y80.221 E0.02208
G1 X156.194 Y80.221 E0.01679
G1 X155.769 Y79.796 E0.01890
G1 X155.377 Y80.152 F10800.000
G1 F1800
G1 X155.200 Y80.177 E0.00426
G1 X155.023 Y80.201 E0.00369
G1 X154.846 Y80.225 E0.00312
G1 X154.669 Y80.249 E0.00254
G1 X154.263 Y80.200 E0.00451
G1 X153.893 Y80.152 E0.00779
G1 F8640
G1 X154.263 Y80.200 E-0.08635
G1 E-0.71365 F2100.00000
G1 Z0.800 F10800.000
G1 X155.265 Y75.017
G1 Z0.200
G1 E0.80000 F2100.00000
G1 F1800
G1 X153.594 Y73.346 E0.07424
G1 X153.059 Y73.346 E0.01679
G1 X154.440 Y74.726 E0.06133
G1 X154.018 Y74.839 E0.01371
G1 X152.525 Y73.346 E0.06634
G1 X151.991 Y73.346 E0.01679
G1 X153.597 Y74.952 E0.07136
G1 X153.245 Y75.046 E0.01145
G1 X153.201 Y75.090 E0.00195
G1 X151.456 Y73.346 E0.07750
G1 X150.922 Y73.346 E0.01679
G1 X152.934 Y75.358 E0.08938
G1 X152.666 Y75.625 E0.01187
G1 X150.388 Y73.346 E0.10125
G1 X149.853 Y73.346 E0.01679
G1 X152.399 Y75.892 E0.11312
G1 X152.218 Y76.073 E0.00806
G1 X152.182 Y76.209 E0.00440
G1 X149.319 Y73.346 E0.12719
G1 X148.785 Y73.346 E0.01679
G1 X152.069 Y76.630 E0.14591
G1 X151.956 Y77.051 E0.01371
G1 X148.250 Y73.346 E0.16464
G1 X147.716 Y73.346 E0.01679
G1 X151.843 Y77.473 E0.18336
G1 X152.036 Y78.200 E0.02365
G1 X147.182 Y73.346 E0.21569
G1 X146.647 Y73.346 E0.01679
G1 X153.522 Y80.221 E0.30548
G1 X152.988 Y80.221 E0.01679
G1 X146.113 Y73.346 E0.30548
G1 X145.578 Y73.346 E0.01679
G1 X152.454 Y80.221 E0.30548
G1 X151.919 Y80.221 E0.01679
G1 X145.044 Y73.346 E0.30548
G1 X144.510 Y73.346 E0.01679
G1 X151.385 Y80.221 E0.30548
G1 X150.851 Y80.221 E0.01679
G1 X143.975 Y73.346 E0.30548
G1 X143.441 Y73.346 E0.01679
G1 X150.316 Y80.221 E0.30548
G1 X149.782 Y80.221 E0.01679
G1 X142.907 Y73.346 E0.30548
G1 X142.372 Y73.346 E0.01679
G1 X149.248 Y80.221 E0.30548
G1 X148.713 Y80.221 E0.01679
G1 X141.838 Y73.346 E0.30548
G1 X141.304 Y73.346 E0.01679
G1 X148.179 Y80.221 E0.30548
G1 X147.645 Y80.221 E0.01679
G1 X140.769 Y73.346 E0.30548
G1 X140.235 Y73.346 E0.01679
G1 X147.110 Y80.221 E0.30548
G1 X146.576 Y80.221 E0.01679
G1 X139.701 Y73.346 E0.30548
G1 X139.166 Y73.346 E0.01679
G1 X146.042 Y80.221 E0.30548
G1 X145.507 Y80.221 E0.01679
G1 X138.632 Y73.346 E0.30548
G1 X138.098 Y73.346 E0.01679
G1 X144.973 Y80.221 E0.30548
G1 X144.438 Y80.221 E0.01679
G1 X137.563 Y73.346 E0.30548
G1 X137.029 Y73.346 E0.01679
G1 X143.904 Y80.221 E0.30548
G1 X143.370 Y80.221 E0.01679
G1 X136.494 Y73.346 E0.30548
G1 X135.960 Y73.346 E0.01679
G1 X142.835 Y80.221 E0.30548
G1 X142.301 Y80.221 E0.01679
G1 X135.426 Y73.346 E0.30548
G1 X134.891 Y73.346 E0.01679
G1 X141.767 Y80.221 E0.30548
G1 X141.232 Y80.221 E0.01679
G1 X134.357 Y73.346 E0.30548
G1 X133.823 Y73.346 E0.01679
G1 X140.698 Y80.221 E0.30548
G1 X140.164 Y80.221 E0.01679
G1 X133.288 Y73.346 E0.30548
G1 X132.754 Y73.346 E0.01679
G1 X139.629 Y80.221 E0.30548
G1 X139.095 Y80.221 E0.01679
G1 X132.220 Y73.346 E0.30548
G1 X131.685 Y73.346 E0.01679
G1 X138.561 Y80.221 E0.30548
G1 X138.026 Y80.221 E0.01679
G1 X131.151 Y73.346 E0.30548
G1 X130.617 Y73.346 E0.01679
G1 X137.492 Y80.221 E0.30548
G1 X136.958 Y80.221 E0.01679
G1 X130.082 Y73.346 E0.30548
G1 X129.548 Y73.346 E0.01679
G1 X136.423 Y80.221 E0.30548
G1 X135.889 Y80.221 E0.01679
G1 X129.014 Y73.346 E0.30548
G1 X128.479 Y73.346 E0.01679
G1 X135.354 Y80.221 E0.30548
G1 X134.820 Y80.221 E0.01679
G1 X127.945 Y73.346 E0.30548
G1 X127.411 Y73.346 E0.01679
G1 X134.286 Y80.221 E0.30548
G1 X133.751 Y80.221 E0.01679
G1 X126.876 Y73.346 E0.30548
G1 X126.342 Y73.346 E0.01679
G1 X133.217 Y80.221 E0.30548
G1 X132.683 Y80.221 E0.01679
G1 X125.807 Y73.346 E0.30548
G1 X125.273 Y73.346 E0.01679
G1 X132.148 Y80.221 E0.30548
G1 X131.614 Y80.221 E0.01679
G1 X124.739 Y73.346 E0.30548
G1 X124.204 Y73.346 E0.01679
G1 X131.080 Y80.221 E0.30548
G1 X130.545 Y80.221 E0.01679
G1 X123.670 Y73.346 E0.30548
G1 X123.136 Y73.346 E0.01679
G1 X130.011 Y80.221 E0.30548
G1 X129.477 Y80.221 E0.01679
G1 X122.601 Y73.346 E0.30548
G1 X122.067 Y73.346 E0.01679
G1 X128.942 Y80.221 E0.30548
G1 X128.408 Y80.221 E0.01679
G1 X121.533 Y73.346 E0.30548
G1 X120.998 Y73.346 E0.01679
G1 X127.874 Y80.221 E0.30548
G1 X127.339 Y80.221 E0.01679
G1 X120.464 Y73.346 E0.30548
G1 X119.930 Y73.346 E0.01679
G1 X126.805 Y80.221 E0.30548
G1 X126.270 Y80.221 E0.01679
G1 X119.395 Y73.346 E0.30548
G1 X118.861 Y73.346 E0.01679
G1 X125.736 Y80.221 E0.30548
G1 X125.202 Y80.221 E0.01679
G1 X118.327 Y73.346 E0.30548
G1 X117.792 Y73.346 E0.01679
G1 X124.667 Y80.221 E0.30548
G1 X124.133 Y80.221 E0.01679
G1 X117.258 Y73.346 E0.30548
G1 X116.723 Y73.346 E0.01679
G1 X123.599 Y80.221 E0.30548
G1 X123.064 Y80.221 E0.01679
G1 X116.189 Y73.346 E0.30548
G1 X115.655 Y73.346 E0.01679
G1 X122.530 Y80.221 E0.30548
G1 X121.996 Y80.221 E0.01679
G1 X115.120 Y73.346 E0.30548
G1 X114.586 Y73.346 E0.01679
G1 X121.461 Y80.221 E0.30548
G1 X120.927 Y80.221 E0.01679
G1 X114.052 Y73.346 E0.30548
G1 X113.517 Y73.346 E0.01679
G1 X120.393 Y80.221 E0.30548
G1 X119.858 Y80.221 E0.01679
G1 X112.983 Y73.346 E0.30548
G1 X112.449 Y73.346 E0.01679
G1 X119.324 Y80.221 E0.30548
G1 X118.790 Y80.221 E0.01679
G1 X111.914 Y73.346 E0.30548
G1 X111.380 Y73.346 E0.01679
G1 X118.255 Y80.221 E0.30548
G1 X117.721 Y80.221 E0.01679
G1 X110.846 Y73.346 E0.30548
G1 X110.311 Y73.346 E0.01679
G1 X117.187 Y80.221 E0.30548
G1 X116.652 Y80.221 E0.01679
G1 X109.777 Y73.346 E0.30548
G1 X109.243 Y73.346 E0.01679
G1 X116.118 Y80.221 E0.30548
G1 X115.583 Y80.221 E0.01679
